X:102
T:Stepney new Revived. ThoH.102
Q:1/2=100
M:3/2
L:1/8
B:Thompson's Compleat Collection of 120 Favourite Hornpipes.
Z:Village Music Project, Simon Wilson 2016
O:England.
K:Bb
B4B,CDEF2ED|E2C2edcdA2F2|G4EGFGF2GA|B2AG FGEFD2B,2:|
|:d4fedcB4|B,CDEF2ED GEDE|e4gede {d}c4|c2ed cBAG AF=EF|
B,CDEF2ED|E2C2ecBAB2ga|b2ag fgfe dedc|B2AG FGFED2B,2:|

